svgs/sharp-regular/trademark.svg

<svg xmlns="http://www.w3.org/2000/svg" viewBox="0 0 640 512"><!--! Font Awesome Pro 6.6.0 by @fontawesome - https://fontawesome.com License - https://fontawesome.com/license (Commercial License) Copyright 2024 Fonticons, Inc. --><path d="M0 96l24 0 208 0 24 0 0 48-24 0-80 0 0 248 0 24-48 0 0-24 0-248-80 0L0 144 0 96zm288 24l0-24 36.2 0 7.2 9.8L464 287.3 596.6 105.8l7.2-9.8L640 96l0 24 0 272 0 24-48 0 0-24 0-198.5L483.4 342.2 464 368.7l-19.4-26.5L336 193.5 336 392l0 24-48 0 0-24 0-272z"/></svg>

<svg xmlns="http://www.w3.org/2000/svg" viewBox="0 0 640 512"><!--! Font Awesome Pro 6.5.2 by @fontawesome - https://fontawesome.com License - https://fontawesome.com/license (Commercial License) Copyright 2024 Fonticons, Inc. --><path d="M0 96H24 232h24v48H232 152V392v24H104V392 144H24 0V96zm288 24V96h36.2l7.2 9.8L464 287.3 596.6 105.8l7.2-9.8H640v24V392v24H592V392 193.5L483.4 342.2 464 368.7l-19.4-26.5L336 193.5V392v24H288V392 120z"/></svg>
